Webpage/images/codewars.svg

<?xml version="1.0" encoding="UTF-8" standalone="no"?>
<svg width="480px" height="480px" viewBox="0 0 480 480" version="1.1" xmlns="http://www.w3.org/2000/svg" xmlns:xlink="http://www.w3.org/1999/xlink">
    <!-- Generator: Sketch 40.3 (33839) - http://www.bohemiancoding.com/sketch -->
    <title>codewars</title>
    <desc>Created with Sketch.</desc>
    <defs></defs>
    <g id="Page-1" stroke="none" stroke-width="1" fill="none" fill-rule="evenodd">
        <g id="vendor-codewars" transform="translate(-40.000000, -40.000000)" fill="#000000">
            <path d="M479.473333,40.32 L80.1133333,40.32 C58.1133333,40.32 40.1133333,58.32 40.1133333,80.32 L40.1133333,479.68 C40.1133333,501.68 58.1133333,519.68 80.1133333,519.68 L479.473333,519.68 C501.473333,519.68 519.473333,501.68 519.473333,479.68 L519.473333,80.32 C519.473333,58.32 501.473333,40.32 479.473333,40.32 Z M488.56,325.193333 C486.586667,327.136667 484.706667,329.176667 482.033333,331.946667 C485.883333,355.08 470.733333,368.803333 454.116667,381.633333 C436.81,394.996667 419.496667,408.356667 401.976667,421.44 C398.066667,424.36 393.29,426.116667 388.873333,428.426667 C377.96,458.563333 373.843333,462.266667 350.72,461.74 C345.186667,476.613333 334.2,482.536667 318.216667,478.336667 C317.156667,478.06 315.51,477.123333 315.156667,477.483333 C299.613333,493.47 281.776667,481.15 265.583333,480.096667 C253.616667,479.32 241.49,471.636667 230.706667,464.97 C221.596667,459.336667 215.15,448.98 202.2,451.976667 C201.706667,452.09 201,451.963333 200.593333,451.67 C188.11,442.633333 173.02,448.183333 160.356667,444.78 C143.93,440.37 129.326667,428.89 114.29,419.873333 C112.026667,418.516667 111.58,414.03 110.436667,410.94 C109.67,408.87 109.663333,405.22 108.45,404.806667 C92.03,399.203333 92.65,383.59 87.2166667,371.096667 C82.16,359.473333 78.65,349.083333 85.0566667,337.013333 C86.57,334.163333 86.5033333,329.39 85.22,326.316667 C76.9366667,306.526667 76.76,306.593333 78.7933333,286.913333 C61.8066667,272.436667 59.31,261.443333 73.1133333,244.003333 C67.58,231.48 64.7966667,218.823333 79.9033333,209.77 C81.0333333,209.093333 81.41,206.89 81.81,205.316667 C86.7366667,185.98 101.35,173.82 116.68,164.31 C130.736667,155.593333 147.85,153.413333 157.113333,135.826667 C160.576667,129.25 171.316667,125.4 173.476667,115.393333 C173.986667,113.03 176.613333,110.7 178.84,109.21 C189.91,101.8 202.84,97.99 212.956667,87.99 C217.206667,83.7933333 229.063333,87.2933333 240.316667,87.2933333 C255.266667,68.62 275.8,83.8 294.76,86.2233333 C303.73,87.3666667 311.75,95.3533333 320.403333,99.8466667 C324.206667,101.823333 328.45,103.106667 332.633333,104.14 C335.266667,104.79 338.513333,103.576667 340.876667,104.603333 C354.17,110.373333 367.413333,114.133333 381.886667,108.55 C383.87,107.786667 388.316667,109.293333 389.453333,111.106667 C398.753333,125.97 417.586667,121.17 428.973333,130.826667 C432.246667,133.603333 432.77,139.62 434.996667,145.266667 C445.88,148.823333 457.76,153.113333 454.886667,169.416667 C466.55,176.613333 458.916667,191.79 467.62,200.21 C458.433333,220.286667 479.85,237.02 473.833333,258.09 C476.683333,260.063333 480.983333,261.87 483.51,265.073333 C487.136667,269.676667 493.25,277.666667 491.726667,280.096667 C482.413333,294.983333 502.6,311.363333 488.56,325.193333 Z M275.113333,143.253333 C252.986667,151.446667 252.72,151.84 257.663333,171.68 C246.906667,176.463333 240.403333,184.253333 246.083333,197.32 C246.803333,198.98 246.373333,202.086667 245.213333,203.45 C240.123333,209.416667 241.093333,214.943333 243.723333,221.853333 C245.173333,225.663333 242.323333,231.11 241.423333,235.753333 C246.15,242.256667 251.273333,248.463333 255.313333,255.31 C256.83,257.876667 257.21,263.673333 255.656667,264.906667 C253.26,266.806667 248.15,267.433333 245.246667,266.17 C233.66,261.136667 221.49,256.51 211.473333,249.11 C203.636667,243.32 198.15,233.996667 192.57,225.613333 C188.496667,219.493333 185.966667,212.346667 181.243333,202.526667 C182.293333,200.44 185.04,195.28 187.5,189.986667 C189.233333,186.26 192.76,181.543333 191.693333,178.68 C188.553333,170.263333 194.563333,163.783333 194.696667,156.926667 C195.036667,139.17 214.66,135.573333 218.233333,120.996667 C237.216667,112.633333 254.77,98.87 277.73,105.68 C281.29,106.736667 285.183333,106.666667 288.436667,107.06 C292.57,115.43 288.12,120.056667 283.926667,125.56 C280.093333,130.593333 278.106667,137.036667 275.113333,143.253333 Z M412.606667,158.73 C420.993333,166.156667 427.45,171.876667 434.756667,178.346667 C436.543333,186.25 438.59,195.29 440.633333,204.326667 C439.506667,205.21 438.383333,206.09 437.256667,206.973333 C422.516667,197.363333 403.8,208.026667 389.546667,195.536667 C388.463333,194.586667 386.303333,194.293333 384.77,194.526667 C370.493333,196.703333 355.51,197.01 342.15,201.806667 C316.953333,210.846667 293.9,224.19 277.83,250.083333 C266.806667,238.4 266.923333,226.403333 269.443333,214.53 C271.876667,203.063333 275.956667,191.946667 279.603333,179.703333 C293.536667,179.86 292.916667,166.786667 296.72,159.056667 C327.72,147.143333 357.536667,134.15 392.61,146.503333 C395.93,154.21 402.366667,162.183333 412.606667,158.73 Z M278.506667,294.48 C290.876667,321.25 281.926667,344.726667 270.766667,366.846667 C265.996667,373.13 261.2,379.39 256.476667,385.706667 C255.16,387.466667 254.056667,390.996667 252.86,390.993333 C236.18,390.956667 226.22,407.546667 208.66,407.37 C194.576667,407.23 181.163333,409.9 166.75,404.993333 C149.896667,399.253333 136.44,390.533333 123.866667,378.113333 C113.583333,367.956667 110.88,358.043333 114.59,344.833333 L148.366667,344.833333 C156.453333,354.706667 167.906667,360.096667 182.69,351.296667 C185.123333,349.846667 189.003333,350.976667 192.173333,350.58 C198.583333,349.776667 205.05,349.126667 211.326667,347.696667 C217.53,346.286667 223.53,343.98 229.623333,342.086667 C231.72,341.436667 234.44,341.47 235.84,340.12 C244.676667,331.606667 253.376667,322.936667 261.81,314.023333 C267.11,308.416667 271.866667,302.296667 278.506667,294.48 Z M141.88,176.04 C140.306667,189.896667 142.016667,200.753333 155.04,207.496667 C149.926667,221.876667 148.963333,234.52 166.666667,239.653333 C167.65,239.936667 169.18,240.773333 169.236667,241.453333 C170.55,257.246667 184.396667,258.903333 194.523333,265.88 C210.72,277.043333 226.88,284.17 246.743333,281.81 C249.993333,281.423333 253.486667,283.063333 257.183333,283.83 C255.176667,299.766667 243.076667,307.253333 233.233333,310.766667 C214.56,317.43 195.596667,329.65 173.716667,318.976667 C169.53,316.936667 163.05,319.593333 159.363333,319.926667 C136.53,309.316667 125.56,287.333333 106.413333,273.193333 C107.326667,263.286667 114.683333,251.673333 102.13,244.986667 C105.213333,214.763333 116.033333,191.106667 141.88,176.04 Z M419.96,379.24 C417.823333,373.526667 414.48,369.156667 415.17,365.563333 C417.28,354.57 412.956667,347.293333 403.473333,341.27 C407.836667,327.85 403.24,318.01 391.223333,310.866667 C388.513333,309.256667 386.216667,305.036667 385.836667,301.773333 C384.75,292.476667 379.87,287.993333 370.92,286.876667 C368.266667,286.546667 364.6,286.1 363.313333,284.32 C350.4,266.473333 330.376667,266.793333 311.733333,263.553333 C307.24,262.773333 302.72,262.156667 297.75,261.396667 C299.123333,245.366667 311.993333,240.726667 320.363333,237.646667 C339.506667,230.603333 360.373333,221.003333 380.866667,229.736667 C397.186667,236.693333 417.263333,237.87 428.036667,256.156667 C431.343333,261.773333 438.963333,264.846667 444.586667,269.066667 C447.74,278.766667 451.046667,288.933333 454.863333,300.673333 L454.863333,333.523333 C446.103333,346.77 439.426667,365.106667 419.96,379.24 Z M230.09,435.27 C261.333333,435.69 264.673333,433.653333 271.693333,410.656667 C285.003333,406.226667 296.436667,399.283333 296.603333,382.24 C296.623333,380.16 299.833333,378.116667 301.563333,376.05 C303.66,373.543333 307.276667,371.22 307.606667,368.496667 C310.06,348.193333 314.44,327.77 307.326667,307.516667 C304.506667,299.486667 301.353333,291.573333 297.143333,280.396667 C305.323333,281.22 310.76,280.713333 315.386667,282.413333 C335.06,289.633333 350.813333,302.84 363.126667,319.196667 C368.92,326.893333 370.453333,337.793333 374.85,349.796667 C370.01,356.92 367.753333,367.243333 376.72,377.716667 C364.913333,387.283333 358.78,398.536667 360.683333,411.583333 C351.33,420.56 342.846667,428.706667 331.913333,439.203333 C325.82,441.916667 316.063333,446.256667 306.88,450.34 C298.966667,451.83 291.233333,453.996667 283.386667,454.556667 C275.833333,455.093333 266.676667,456.46 260.876667,453.006667 C251.243333,447.266667 235.78,451.596667 230.09,435.27 Z" id="codewars"></path>
        </g>
    </g>
</svg>

<?xml version="1.0" encoding="utf-8"?>
<!-- Generator: Adobe Illustrator 16.0.0, SVG Export Plug-In . SVG Version: 6.00 Build 0)  -->
<!DOCTYPE svg PUBLIC "-//W3C//DTD SVG 1.1//EN" "http://www.w3.org/Graphics/SVG/1.1/DTD/svg11.dtd">
<svg version="1.1" id="Layer_1" xmlns="http://www.w3.org/2000/svg" xmlns:xlink="http://www.w3.org/1999/xlink" x="0px" y="0px"
	 width="480px" height="480px" viewBox="0 0 480 480" enable-background="new 0 0 480 480" xml:space="preserve">
<rect x="11.5" y="25.5" fill="#FFFFFF" stroke="#000000" stroke-miterlimit="10" width="451" height="435"/>
<title>codewars</title>
<desc>Created with Sketch.</desc>
<g id="Page-1">
	<g id="vendor-codewars" transform="translate(-40.000000, -40.000000)">
		<path id="codewars" d="M479.473,40.32H80.114c-22,0-40,18-40,40v399.36c0,22,18,40,40,40h399.359c22,0,40-18,40-40V80.32
			C519.473,58.32,501.473,40.32,479.473,40.32z M488.56,325.193c-1.974,1.942-3.854,3.982-6.526,6.754
			c3.851,23.133-11.301,36.854-27.917,49.686c-17.307,13.363-34.62,26.725-52.14,39.807c-3.91,2.92-8.688,4.679-13.104,6.987
			c-10.912,30.138-15.029,33.84-38.152,33.313c-5.533,14.873-16.52,20.797-32.503,16.597c-1.062-0.277-2.707-1.214-3.062-0.854
			c-15.543,15.985-33.38,3.667-49.572,2.612c-11.967-0.775-24.094-8.46-34.877-15.127c-9.109-5.633-15.558-15.988-28.506-12.992
			c-0.494,0.112-1.2-0.015-1.607-0.308c-12.483-9.037-27.573-3.485-40.236-6.892c-16.427-4.408-31.029-15.889-46.065-24.905
			c-2.265-1.356-2.71-5.845-3.854-8.935c-0.767-2.068-0.772-5.719-1.985-6.133c-16.422-5.604-15.802-21.217-21.233-33.71
			c-5.057-11.624-8.567-22.013-2.16-34.083c1.513-2.851,1.446-7.623,0.163-10.697c-8.283-19.789-8.46-19.723-6.427-39.402
			c-16.986-14.477-19.483-25.47-5.681-42.91c-5.532-12.523-8.315-25.18,6.79-34.233c1.131-0.677,1.508-2.88,1.906-4.454
			c4.927-19.336,19.54-31.497,34.87-41.006c14.057-8.717,31.17-10.897,40.434-28.483c3.464-6.577,14.203-10.427,16.363-20.433
			c0.51-2.363,3.137-4.693,5.363-6.184c11.07-7.41,24-11.22,34.116-21.22c4.25-4.197,16.106-0.697,27.359-0.697
			c14.95-18.673,35.483-3.494,54.443-1.07c8.97,1.144,16.99,9.13,25.644,13.624c3.804,1.977,8.048,3.26,12.229,4.293
			c2.634,0.65,5.88-0.563,8.243,0.463c13.294,5.77,26.536,9.53,41.01,3.946c1.982-0.763,6.431,0.744,7.566,2.557
			c9.301,14.863,28.134,10.063,39.521,19.72c3.272,2.777,3.797,8.793,6.022,14.44c10.885,3.557,22.765,7.847,19.891,24.15
			c11.664,7.197,4.029,22.374,12.732,30.793c-9.187,20.077,12.23,36.81,6.214,57.88c2.851,1.974,7.149,3.78,9.678,6.983
			c3.626,4.604,9.739,12.593,8.217,15.023C482.412,294.982,502.6,311.363,488.56,325.193z M275.114,143.253
			c-22.127,8.193-22.394,8.586-17.449,28.427c-10.757,4.783-17.261,12.573-11.58,25.64c0.72,1.66,0.29,4.767-0.87,6.13
			c-5.09,5.966-4.12,11.493-1.49,18.403c1.45,3.81-1.398,9.256-2.3,13.9c4.727,6.503,9.851,12.71,13.891,19.557
			c1.518,2.567,1.896,8.363,0.344,9.597c-2.396,1.9-7.508,2.527-10.41,1.263c-11.586-5.033-23.756-9.66-33.773-17.06
			c-7.836-5.79-13.323-15.113-18.903-23.497c-4.072-6.12-6.603-13.267-11.325-23.086c1.05-2.087,3.797-7.247,6.257-12.54
			c1.732-3.727,5.26-8.443,4.192-11.307c-3.141-8.417,2.87-14.897,3.004-21.753c0.34-17.757,19.964-21.354,23.536-35.93
			c18.983-8.363,36.536-22.126,59.496-15.316c3.562,1.057,7.453,0.986,10.707,1.38c4.133,8.37-0.315,12.997-4.51,18.5
			C280.093,130.593,278.107,137.037,275.114,143.253z M412.607,158.73c8.387,7.427,14.843,13.146,22.149,19.617
			c1.787,7.903,3.834,16.943,5.877,25.98c-1.127,0.883-2.25,1.763-3.377,2.646c-14.739-9.61-33.456,1.054-47.71-11.437
			c-1.083-0.95-3.243-1.243-4.776-1.01c-14.276,2.176-29.26,2.483-42.62,7.28c-25.195,9.04-48.25,22.383-64.318,48.277
			c-11.023-11.684-10.907-23.68-8.388-35.553c2.434-11.467,6.514-22.583,10.16-34.827c13.934,0.157,13.313-12.917,17.116-20.646
			c31-11.913,60.815-24.907,95.89-12.553C395.93,154.21,402.365,162.184,412.607,158.73z M278.507,294.48
			c12.369,26.77,3.42,50.246-7.74,72.365c-4.771,6.283-9.565,12.545-14.29,18.86c-1.315,1.76-2.42,5.289-3.617,5.286
			c-16.68-0.036-26.64,16.554-44.198,16.377c-14.084-0.141-27.497,2.529-41.91-2.377c-16.854-5.739-30.312-14.46-42.884-26.881
			c-10.283-10.155-12.986-20.069-9.276-33.278h33.776c8.087,9.873,19.539,15.263,34.322,6.463c2.435-1.45,6.313-0.319,9.483-0.717
			c6.41-0.804,12.877-1.453,19.153-2.883c6.202-1.41,12.202-3.718,18.297-5.61c2.097-0.65,4.815-0.617,6.217-1.967
			c8.837-8.514,17.536-17.184,25.97-26.098C267.11,308.416,271.866,302.297,278.507,294.48z M141.88,176.04
			c-1.573,13.856,0.137,24.713,13.16,31.457c-5.113,14.38-6.077,27.023,11.626,32.157c0.982,0.283,2.514,1.12,2.569,1.8
			c1.313,15.793,15.16,17.45,25.287,24.427c16.196,11.164,32.356,18.29,52.221,15.932c3.25-0.388,6.742,1.252,10.438,2.02
			c-2.006,15.938-14.105,23.424-23.949,26.938c-18.674,6.662-37.637,18.883-59.517,8.209c-4.188-2.039-10.667,0.617-14.354,0.95
			c-22.834-10.61-33.804-32.593-52.949-46.733c0.913-9.907,8.27-21.52-4.283-28.207C105.213,214.763,116.033,191.106,141.88,176.04z
			 M419.96,379.24c-2.138-5.713-5.48-10.084-4.79-13.678c2.108-10.992-2.215-18.271-11.697-24.293
			c4.363-13.42-0.233-23.261-12.25-30.402c-2.71-1.61-5.007-5.83-5.387-9.094c-1.086-9.297-5.968-13.78-14.916-14.896
			c-2.653-0.33-6.32-0.777-7.607-2.557c-12.913-17.847-32.937-17.527-51.579-20.768c-4.494-0.78-9.014-1.396-13.982-2.157
			c1.373-16.03,14.243-20.67,22.612-23.75c19.144-7.043,40.01-16.643,60.503-7.91c16.32,6.957,36.396,8.133,47.17,26.42
			c3.308,5.617,10.928,8.689,16.551,12.91c3.152,9.7,6.46,19.868,10.276,31.607v32.851
			C446.103,346.77,439.426,365.105,419.96,379.24z M230.09,435.27c31.243,0.42,34.583-1.615,41.604-24.612
			c13.311-4.431,24.743-11.373,24.91-28.416c0.021-2.08,3.229-4.123,4.96-6.19c2.098-2.507,5.713-4.828,6.043-7.554
			c2.453-20.304,6.833-40.728-0.279-60.979c-2.819-8.029-5.974-15.942-10.184-27.12c8.18,0.823,13.616,0.316,18.243,2.017
			c19.673,7.22,35.426,20.427,47.738,36.784c5.795,7.695,7.327,18.596,11.725,30.6c-4.84,7.123-7.097,17.446,1.87,27.92
			c-11.808,9.566-17.94,20.82-16.037,33.867c-9.354,8.977-17.837,17.123-28.77,27.619c-6.095,2.713-15.851,7.054-25.033,11.137
			c-7.913,1.49-15.646,3.656-23.493,4.217c-7.554,0.537-16.71,1.903-22.511-1.55C251.243,447.268,235.78,451.598,230.09,435.27z"/>
	</g>
</g>
</svg>
